X: 833
T: Polska efter Karl Rickard Ahlberg
S: efter Karl Rickard Ahlberg
O: Sköldinge, Södermanland
R: Polska
B: [[http://www.smus.se/earkiv/fmk/browselarge.php?lang=sw&katalogid=S%F6+1&bildnr=00106|SMUS - katalog Sö 1 bild 106]]
Z: Nils L, 2008-12-16
Q: 126
M: 3/4
K: Ador
L: 1/8
|: (A>B) (c>B) (A>B) | (c>d) (e2 d2) | (d>f) (f>a) (f>a) | (a>g) e4 ::
   (f>g a)>(a f>a) | (a>g e2) c2 | c>e (g2 e2) | {/a}(g/a/g/f/) (d2 B2) | (c(3B/c/d/ e2) c>>(d | B)>>(^G y A8) :|
(:musicend:)

(:music:)
